src/48x48/places/folder-gruvbox-original-red-unlocked.svg

<?xml version="1.0" encoding="UTF-8"?>
<svg width="48" height="48" version="1" xmlns="http://www.w3.org/2000/svg">
 <rect x="4" y="17" width="40" height="26" rx="2" ry="2" opacity=".2"/>
 <path d="m4 34c0 1.108 0.892 2 2 2h36c1.108 0 2-0.892 2-2v-22c0-1.108-0.892-2-2-2h-18c-3 0-4-4-7-4h-11c-1.108 0-2 0.892-2 2" fill="#9d0006"/>
 <rect x="4" y="15" width="40" height="26" rx="2" ry="2" opacity=".2"/>
 <rect x="6" y="13" width="36" height="16" rx="2" ry="2" fill="#efd2b3"/>
 <rect x="4" y="16" width="40" height="26" rx="2" ry="2" fill="#fb4934"/>
 <path d="m6 6c-1.108 0-2 0.892-2 2v1c0-1.108 0.892-2 2-2h11c3 0 4 4 7 4h18c1.108 0 2 0.892 2 2v-1c0-1.108-0.892-2-2-2h-18c-3 0-4-4-7-4z" fill="#efd2b3" opacity=".1"/>
 <path d="m24 20c-2.216 0-4 1.821-4 4.062v0.938h2v-1c0-1.109 0.892-2 2-2s2 0.891 2 2v4h-2-5c-0.554 0-1 0.446-1 1v6c0 0.554 0.446 1 1 1h10c0.554 0 1-0.446 1-1v-6c0-0.554-0.446-1-1-1h-1v-3.938c0-2.24-1.784-4.062-4-4.062z" fill="#442e2d"/>
</svg>

<svg xmlns="http://www.w3.org/2000/svg" width="48" height="48" version="1">
 <rect style="opacity:0.2" width="40" height="26" x="4" y="17" rx="2" ry="2"/>
 <path style="fill:#9d0006" d="M 4,34 C 4,35.108 4.892,36 6,36 H 42 C 43.108,36 44,35.108 44,34 V 12 C 44,10.892 43.108,10 42,10 H 24 C 21,10 20,6 17,6 H 6 C 4.892,6 4,6.892 4,8"/>
 <rect style="opacity:0.2" width="40" height="26" x="4" y="15" rx="2" ry="2"/>
 <rect style="fill:#efd2b3" width="36" height="16" x="6" y="13" rx="2" ry="2"/>
 <rect style="fill:#fb4934" width="40" height="26" x="4" y="16" rx="2" ry="2"/>
 <path style="opacity:0.1;fill:#efd2b3" d="M 6,6 C 4.892,6 4,6.892 4,8 V 9 C 4,7.892 4.892,7 6,7 H 17 C 20,7 21,11 24,11 H 42 C 43.108,11 44,11.892 44,13 V 12 C 44,10.892 43.108,10 42,10 H 24 C 21,10 20,6 17,6 Z"/>
 <path style="fill:#442e2d" d="M 24 20 C 21.784 20 20 21.821 20 24.062 L 20 25 L 22 25 L 22 24 C 22 22.891 22.892 22 24 22 C 25.108 22 26 22.891 26 24 L 26 28 L 24 28 L 19 28 C 18.446 28 18 28.446 18 29 L 18 35 C 18 35.554 18.446 36 19 36 L 29 36 C 29.554 36 30 35.554 30 35 L 30 29 C 30 28.446 29.554 28 29 28 L 28 28 L 28 24.062 C 28 21.822 26.216 20 24 20 z"/>
</svg>
